lib/flags/er-eritrea.svg

<svg xmlns="http://www.w3.org/2000/svg" fill="none" aria-hidden="true" viewBox="0 0 42 30"><g id="Country=ER - Eritrea, Size=sm (36x24)" filter="url(#filter0_dd_91_28533)"><g clip-path="url(#clip0_91_28533)"><g id="flag"><mask id="mask0_91_28533" width="36" height="24" x="3" y="2" maskUnits="userSpaceOnUse" style="mask-type:alpha"><rect id="mask" width="36" height="24" x="3" y="2" fill="white"/></mask><g mask="url(#mask0_91_28533)"><g id="contents"><path id="top" fill="#43B764" fill-rule="evenodd" d="M3 2V14H39V2H3Z" clip-rule="evenodd"/><path id="bottom" fill="#B4D7F4" fill-rule="evenodd" d="M3 14V26H39V14H3Z" clip-rule="evenodd"/><path id="blue" fill="#BE0027" fill-rule="evenodd" d="M3 2L37.9412 14L3 26V2Z" clip-rule="evenodd"/><path id="Combined Shape" fill="#F3E294" fill-rule="evenodd" d="M11.5772 20.5159C11.7101 20.3893 11.8793 20.2757 12.0921 20.2073C12.1046 19.5705 12.0966 18.8756 12.0552 18.2152C11.9994 18.136 11.9021 18.0699 11.7326 18.0699C11.3093 18.0699 10.3795 17.7282 10.3795 17.2362C10.3795 17.2362 11.073 17.5322 11.2666 17.3842C11.3491 17.3212 11.134 17.1257 10.8741 16.8895C10.5239 16.5713 10.0923 16.179 10.197 15.9368C10.197 15.9368 10.8771 16.5054 11.0222 16.5054C11.0885 16.5054 11.0433 16.3211 10.9979 16.1358C10.9438 15.9153 10.8894 15.6933 11.0222 15.779C11.2666 15.9368 11.9454 17.0247 11.9454 17.3842C11.9454 17.5799 11.9999 17.8878 12.0496 18.1279L12.0491 18.1208C12.0209 17.7066 11.9804 17.3345 11.9264 17.0161C11.6213 15.2163 11.6104 13.3715 12.0348 12.3896C11.8233 12.2659 11.669 12.108 11.669 11.9277C11.669 11.9277 12.3626 12.1939 12.5562 12.0608C12.6386 12.0041 12.4236 11.8284 12.1637 11.6159C11.8135 11.3296 11.3818 10.9768 11.4865 10.7588C11.4865 10.7588 12.1666 11.2703 12.3118 11.2703C12.378 11.2703 12.3329 11.1046 12.2874 10.9379C12.2334 10.7395 12.1789 10.5399 12.3118 10.617C12.5562 10.7588 13.235 11.7374 13.235 12.0608L13.235 12.0685C13.498 11.7606 13.8045 11.4734 13.9657 11.4014C14.1384 11.3243 14.0677 11.524 13.9974 11.7224C13.9383 11.889 13.8795 12.0548 13.9657 12.0548C14.1545 12.0548 15.0389 11.5433 15.0389 11.5433C15.175 11.7612 14.6137 12.1141 14.1583 12.4003C13.8203 12.6128 13.5407 12.7886 13.6479 12.8453C13.8997 12.9784 14.8016 12.7122 14.8016 12.7122C14.8016 13.1547 13.5924 13.4621 13.0419 13.4621C12.8372 13.4621 12.7135 13.5134 12.6387 13.5778C12.6021 13.8845 12.5853 14.2319 12.5872 14.604C12.8623 14.2693 13.206 13.9405 13.3801 13.8628C13.5528 13.7857 13.482 13.9853 13.4117 14.1837C13.3527 14.3504 13.2939 14.5161 13.3801 14.5161C13.5689 14.5161 14.4532 14.0046 14.4532 14.0046C14.5894 14.2226 14.0281 14.5754 13.5727 14.8617C13.2347 15.0742 12.955 15.25 13.0623 15.3067C13.314 15.4398 14.216 15.1736 14.216 15.1736C14.216 15.567 13.2602 15.8536 12.6613 15.9124C12.6947 16.2356 12.7392 16.5634 12.7942 16.8879C12.8529 17.2343 12.8962 17.6309 12.9259 18.0688C12.9387 18.2568 12.9488 18.4474 12.9564 18.6387C12.9828 18.4795 13.0024 18.3219 13.0024 18.2047C13.0024 17.8451 13.6812 16.7572 13.9256 16.5995C14.0584 16.5138 14.004 16.7358 13.9499 16.9563C13.9045 17.1416 13.8593 17.3258 13.9256 17.3258C14.0707 17.3258 14.7508 16.7572 14.7508 16.7572C14.8555 16.9995 14.4239 17.3918 14.0737 17.71C13.8138 17.9462 13.5987 18.1416 13.6812 18.2047C13.8748 18.3526 14.5683 18.0567 14.5683 18.0567C14.5683 18.5486 13.6385 18.8904 13.2152 18.8904C13.1046 18.8904 13.0248 18.9185 12.9671 18.9601C12.9783 19.3822 12.9785 19.8029 12.971 20.2024C13.2019 20.2735 13.3822 20.3976 13.521 20.5349C13.7929 20.5172 14.0605 20.4783 14.3238 20.4181C14.8323 20.1538 15.9576 19.303 16.2426 18.9685C16.4584 18.715 16.5408 18.2161 16.6187 17.7446L16.6187 17.7446L16.6187 17.7446C16.6633 17.4748 16.7064 17.2141 16.7721 17.0134C16.9528 16.462 17.2724 17.6835 17.2724 17.8737C17.2724 18.0639 17.5356 17.1684 17.5356 16.5401C17.5356 16.2254 17.4695 16.0234 17.4036 15.8217L17.4036 15.8217C17.338 15.6209 17.2724 15.4204 17.2724 15.1094C17.2724 14.7418 17.4999 14.807 17.7107 14.9976C17.6143 14.748 17.5356 14.4392 17.5356 14.1208C17.5356 13.7133 17.4814 13.5909 17.4579 13.5605C17.4792 13.5695 17.5356 13.5745 17.6543 13.5136C17.8581 13.4091 17.9529 13.5374 18.0323 13.6448C18.1016 13.7387 18.1592 13.8166 18.2675 13.7096C18.3859 13.5924 18.1304 13.4593 17.7508 13.2615C17.3865 13.0716 16.9077 12.8221 16.5358 12.47C15.7763 11.7511 16.7721 11.5044 16.942 11.755C17.1118 12.0057 18.1238 12.2875 17.5356 11.4532C17.178 10.946 16.7373 10.9523 16.3363 10.958C16.0776 10.9617 15.8354 10.9652 15.6429 10.8303C15.3103 10.5975 15.7735 10.3569 16.0258 10.2259C16.1461 10.1634 16.2185 10.1258 16.1339 10.1258C16.0262 10.1258 15.889 10.0897 15.7273 10.0472C15.4956 9.9862 15.2138 9.91206 14.897 9.91206C14.3592 9.91206 13.2963 9.45757 13.6639 9.45757C13.7947 9.45757 13.9885 9.41372 14.2014 9.36555C14.4352 9.31264 14.6921 9.25451 14.9137 9.24363C14.2684 8.96186 13.5302 8.72427 12.6983 8.53075L12.8398 8C13.6623 8.19131 14.4024 8.42637 15.0593 8.70511C14.9461 8.5406 14.8236 8.36201 14.7217 8.19409C14.3698 7.61412 15.4683 8.51481 15.9032 9.11113L15.9044 9.11275C16.6119 9.50051 17.1957 9.95296 17.6543 10.4699V9.29625C18.065 9.42912 18.2988 10.6825 18.4217 11.6268C18.5113 11.8166 18.5885 12.0127 18.6533 12.2151C18.8132 11.812 19.115 11.3848 19.3864 11.755C19.7096 12.1958 19.1388 14.6958 18.9285 15.5599C18.9194 15.6506 18.9088 15.7406 18.8969 15.83C19.3976 15.5289 19.6572 14.8338 19.7902 14.4775C19.905 14.1702 19.9256 14.115 19.9256 14.7826C19.9256 15.646 19.214 16.501 18.631 17.0566C18.5475 17.3297 18.4486 17.5958 18.3343 17.8548C18.736 17.735 19.0802 17.5246 19.3469 17.3617C19.814 17.0762 20.0431 16.9362 19.9256 17.6835C19.7976 18.4984 18.5458 18.7993 17.7589 18.9083C17.7018 18.9949 17.6426 19.0805 17.5814 19.1652L17.5481 19.2034C17.4262 19.3199 17.3031 19.431 17.1787 19.5368C17.2581 19.5049 17.3345 19.4721 17.4093 19.4401C17.7164 19.3084 17.9961 19.1884 18.3501 19.1884C18.5638 19.1884 18.2717 19.2938 17.8581 19.4429L17.8581 19.4429L17.8581 19.4429L17.8581 19.443C17.3694 19.6192 16.7112 19.8567 16.5182 20.0535C16.4374 20.1359 16.3844 20.2026 16.3415 20.2565L16.3414 20.2566L16.3414 20.2566C16.2153 20.4151 16.1774 20.4628 15.7815 20.4729C15.1709 20.7793 14.5346 20.9727 13.8735 21.0518C13.9153 21.1456 13.9328 21.2074 13.9328 21.2074H11.1459C11.1459 21.2074 11.1674 21.1316 11.2195 21.0204C10.64 20.9274 10.0799 20.7453 9.53981 20.4747C9.5257 20.475 9.51106 20.4752 9.49588 20.4752C8.8913 20.4752 8.86363 20.4404 8.71738 20.2566L8.71737 20.2566L8.71736 20.2565L8.71734 20.2565L8.71734 20.2565C8.67447 20.2026 8.6214 20.1359 8.54064 20.0535C8.34761 19.8567 7.6894 19.6192 7.20069 19.4429L7.20068 19.4429C6.78717 19.2938 6.49502 19.1884 6.70871 19.1884C7.06269 19.1884 7.34244 19.3084 7.64952 19.4401C7.74691 19.4818 7.84705 19.5248 7.95317 19.5654C8.0533 19.6038 8.18755 19.6499 8.33525 19.6983C8.14378 19.5458 7.95522 19.3808 7.7696 19.2034L7.73628 19.1652C7.68265 19.091 7.63056 19.016 7.58003 18.9403C6.85144 18.8652 5.29184 18.5982 5.14808 17.6835C5.03062 16.9362 5.25972 17.0762 5.72685 17.3617C6.00821 17.5336 6.37592 17.7583 6.80627 17.8737C6.88452 17.8947 6.95387 17.9119 7.01517 17.9258C6.93233 17.7434 6.85718 17.5575 6.78972 17.3681C6.19519 16.8649 5.14808 15.83 5.14808 14.7826C5.14808 14.115 5.16868 14.1702 5.28347 14.4775C5.42015 14.8435 5.6904 15.5671 6.21847 15.8538C6.21847 15.8538 5.29533 12.2896 5.68728 11.755C6.07922 11.2205 6.5344 12.3482 6.5344 12.6657C6.5344 12.7212 6.5401 12.6614 6.55324 12.5237L6.55324 12.5237C6.61532 11.8729 6.84336 9.48259 7.41946 9.29623V10.5883C7.41946 10.6485 7.44788 10.672 7.49775 10.6663C7.88094 10.1883 8.36494 9.76219 8.94873 9.38803C9.03535 9.28685 9.11114 9.19252 9.17051 9.11112C9.60543 8.5148 10.704 7.6141 10.352 8.19408C10.2468 8.36757 10.1195 8.55246 10.0032 8.72145L10.0032 8.72146L10.0031 8.72149L10.0028 8.72203C9.96952 8.77032 9.93718 8.8173 9.90651 8.86234C10.6475 8.51377 11.5051 8.22628 12.4779 8L12.6194 8.53075C11.768 8.72881 11.0148 8.97302 10.3588 9.26351C10.5276 9.28754 10.7058 9.32785 10.8723 9.36554L10.8723 9.36554L10.8724 9.36554C11.0852 9.4137 11.279 9.45755 11.4098 9.45755C11.7774 9.45755 10.7145 9.91205 10.1767 9.91205C9.85994 9.91205 9.5781 9.98619 9.34641 10.0471C9.18473 10.0897 9.04747 10.1258 8.93981 10.1258C8.85526 10.1258 8.92763 10.1634 9.04789 10.2259C9.30021 10.3569 9.76337 10.5975 9.43084 10.8303C9.23828 10.9652 8.99613 10.9617 8.73743 10.958C8.45091 10.9539 8.14409 10.9495 7.86183 11.1324C7.67174 11.3896 7.51325 11.6623 7.38617 11.9503C7.51444 12.1092 8.01663 11.925 8.13176 11.755C8.30159 11.5044 9.29738 11.7511 8.53795 12.47C8.16597 12.8221 7.68725 13.0716 7.32287 13.2615C7.2041 13.3234 7.09747 13.3789 7.01066 13.4297C6.99834 13.5281 6.98746 13.6259 6.97799 13.7229C6.99926 13.7019 7.01977 13.6741 7.04143 13.6448C7.12083 13.5374 7.21564 13.4091 7.41946 13.5136C7.53815 13.5745 7.59452 13.5695 7.61584 13.5605C7.59232 13.5909 7.53813 13.7132 7.53813 14.1208C7.53813 14.4392 7.45941 14.748 7.36302 14.9975C7.57382 14.807 7.80129 14.7418 7.80129 15.1094C7.80129 15.4204 7.73576 15.6209 7.6701 15.8217C7.60418 16.0233 7.53813 16.2254 7.53813 16.5401C7.53813 17.1683 7.80129 18.0639 7.80129 17.8737C7.80129 17.6835 8.12094 16.462 8.30159 17.0134C8.36733 17.2141 8.41041 17.4748 8.45499 17.7446C8.53288 18.2161 8.61532 18.715 8.83116 18.9684C9.07836 19.2587 9.95816 19.9375 10.5189 20.2848C10.8641 20.4 11.2169 20.4769 11.5772 20.5159ZM7.62647 13.5521C7.62598 13.5509 7.62194 13.5526 7.61584 13.5605C7.62391 13.5571 7.62696 13.5532 7.62647 13.5521ZM17.4579 13.5605C17.4518 13.5526 17.4477 13.551 17.4472 13.5521C17.4468 13.5532 17.4498 13.5571 17.4579 13.5605ZM17.6477 17.9533C17.6713 17.9064 17.6944 17.8592 17.717 17.8117C17.6579 17.8661 17.6136 17.9236 17.6477 17.9533ZM12.7587 12.9495C12.7438 13.084 12.7048 13.2488 12.6629 13.3995C12.6883 13.2343 12.7202 13.0833 12.7587 12.9495Z" clip-rule="evenodd"/></g></g></g></g></g><defs><filter id="filter0_dd_91_28533" width="42" height="30" x="0" y="0" color-interpolation-filters="sRGB" filterUnits="userSpaceOnUse"><feFlood flood-opacity="0" result="BackgroundImageFix"/><feColorMatrix in="SourceAlpha" result="hardAlpha" values="0 0 0 0 0 0 0 0 0 0 0 0 0 0 0 0 0 0 127 0"/><feOffset dy="1"/><feGaussianBlur stdDeviation="1"/><feColorMatrix values="0 0 0 0 0.0627451 0 0 0 0 0.0941176 0 0 0 0 0.156863 0 0 0 0.06 0"/><feBlend in2="BackgroundImageFix" result="effect1_dropShadow_91_28533"/><feColorMatrix in="SourceAlpha" result="hardAlpha" values="0 0 0 0 0 0 0 0 0 0 0 0 0 0 0 0 0 0 127 0"/><feOffset dy="1"/><feGaussianBlur stdDeviation="1.5"/><feColorMatrix values="0 0 0 0 0.0627451 0 0 0 0 0.0941176 0 0 0 0 0.156863 0 0 0 0.1 0"/><feBlend in2="effect1_dropShadow_91_28533" result="effect2_dropShadow_91_28533"/><feBlend in="SourceGraphic" in2="effect2_dropShadow_91_28533" result="shape"/></filter><clipPath id="clip0_91_28533"><rect width="36" height="24" x="3" y="2" fill="white" rx="2"/></clipPath></defs></svg>

<svg xmlns="http://www.w3.org/2000/svg" fill="none" aria-hidden="true" viewBox="0 0 42 30"><g filter="url(#a)"><g clip-path="url(#b)"><mask id="c" width="36" height="24" x="3" y="2" maskUnits="userSpaceOnUse" style="mask-type:alpha"><path fill="#fff" d="M3 2h36v24H3z"/></mask><g fill-rule="evenodd" clip-rule="evenodd" mask="url(#c)"><path fill="#43B764" d="M3 2v12h36V2H3Z"/><path fill="#B4D7F4" d="M3 14v12h36V14H3Z"/><path fill="#BE0027" d="m3 2 34.941 12L3 26V2Z"/><path fill="#F3E294" d="M11.577 20.516c.133-.127.302-.24.515-.309.013-.637.005-1.331-.037-1.992-.056-.079-.153-.145-.322-.145-.424 0-1.354-.342-1.354-.834 0 0 .694.296.888.148.082-.063-.133-.258-.393-.494-.35-.319-.782-.711-.677-.953 0 0 .68.568.825.568.066 0 .021-.184-.024-.37-.054-.22-.109-.442.024-.356.245.158.923 1.246.923 1.605 0 .196.055.504.105.744v-.007a11.333 11.333 0 0 0-.124-1.105c-.305-1.8-.316-3.644.109-4.626-.212-.124-.366-.282-.366-.462 0 0 .694.266.887.133.083-.057-.132-.233-.392-.445-.35-.286-.782-.64-.678-.857 0 0 .68.511.826.511.066 0 .02-.165-.025-.332-.054-.199-.108-.398.025-.321.244.142.923 1.12.923 1.444v.008c.263-.308.57-.596.73-.668.173-.077.103.123.032.321-.059.167-.117.333-.031.333.189 0 1.073-.512 1.073-.512.136.218-.425.571-.88.857-.339.213-.618.389-.511.445.252.133 1.154-.133 1.154-.133 0 .443-1.21.75-1.76.75-.205 0-.329.051-.403.116a8.423 8.423 0 0 0-.052 1.026c.275-.335.619-.663.793-.741.173-.077.102.122.032.32-.06.167-.118.333-.032.333.189 0 1.073-.511 1.073-.511.136.218-.425.57-.88.857-.338.212-.618.388-.51.445.251.133 1.153-.133 1.153-.133 0 .393-.956.68-1.555.738.034.324.078.651.133.976.059.346.102.743.132 1.18.013.189.023.38.03.57.027-.159.046-.316.046-.433 0-.36.68-1.448.924-1.605.132-.086.078.136.024.356-.045.186-.09.37-.024.37.145 0 .825-.569.825-.569.104.242-.327.635-.677.953-.26.236-.475.432-.393.495.194.148.887-.148.887-.148 0 .492-.93.833-1.353.833-.11 0-.19.029-.248.07.011.422.011.843.004 1.242.23.071.411.196.55.333a5.13 5.13 0 0 0 .803-.117c.508-.264 1.634-1.115 1.919-1.45.215-.253.298-.752.376-1.223.044-.27.087-.53.153-.732.18-.551.5.67.5.86 0 .19.264-.705.264-1.333 0-.315-.067-.517-.132-.718-.066-.201-.132-.402-.132-.713 0-.367.228-.302.439-.111a2.483 2.483 0 0 1-.175-.877c0-.408-.055-.53-.078-.56.021.008.078.014.196-.047.204-.105.299.023.378.13.07.095.127.173.235.066.119-.118-.137-.25-.516-.449-.364-.19-.843-.439-1.215-.791-.76-.719.236-.966.406-.715.17.25 1.182.532.594-.302-.358-.507-.799-.5-1.2-.495-.258.004-.5.007-.693-.128-.333-.232.13-.473.383-.604.12-.063.192-.1.108-.1-.108 0-.245-.036-.407-.079-.231-.06-.513-.135-.83-.135-.538 0-1.6-.454-1.233-.454.13 0 .325-.044.537-.092.234-.053.491-.111.713-.122a12.786 12.786 0 0 0-2.216-.713L12.84 8c.822.191 1.562.426 2.22.705a11.06 11.06 0 0 1-.338-.51c-.352-.58.746.32 1.181.916l.001.002c.708.388 1.292.84 1.75 1.357V9.296c.411.133.645 1.386.768 2.33.09.19.166.387.231.59.16-.404.462-.831.733-.461.324.44-.247 2.94-.457 3.805-.01.09-.02.18-.032.27.5-.301.76-.996.893-1.353.115-.307.136-.362.136.306 0 .863-.712 1.718-1.295 2.274a7.128 7.128 0 0 1-.297.798c.402-.12.746-.33 1.013-.493.467-.286.696-.426.579.322-.128.814-1.38 1.115-2.167 1.224a7.3 7.3 0 0 1-.178.257l-.033.038a8.583 8.583 0 0 1-.37.334c.08-.032.156-.065.231-.097.307-.132.587-.252.941-.252.214 0-.078.106-.492.255-.489.176-1.147.414-1.34.61-.08.083-.134.15-.177.203-.126.16-.164.207-.56.217-.61.306-1.246.5-1.908.579.042.094.06.155.06.155h-2.787s.021-.075.073-.187a5.775 5.775 0 0 1-1.68-.545h-.043c-.605 0-.632-.035-.779-.218a2.408 2.408 0 0 0-.176-.204c-.193-.196-.852-.434-1.34-.61-.414-.15-.706-.255-.492-.255.354 0 .633.12.94.252.098.042.198.085.304.125.1.039.235.085.382.133a8.338 8.338 0 0 1-.565-.495l-.034-.038a7.35 7.35 0 0 1-.156-.225c-.729-.075-2.288-.342-2.432-1.257-.117-.747.112-.607.579-.321.281.172.649.396 1.08.512.078.02.147.038.208.052a7.148 7.148 0 0 1-.225-.558c-.595-.503-1.642-1.538-1.642-2.585 0-.668.02-.613.135-.306.137.367.407 1.09.935 1.377 0 0-.923-3.564-.53-4.099.391-.535.846.593.846.91 0 .056.006-.004.02-.141.061-.651.29-3.041.865-3.228v1.292c0 .06.029.084.079.078a5.954 5.954 0 0 1 1.45-1.278c.087-.101.163-.195.223-.277.434-.596 1.533-1.497 1.181-.917-.105.174-.232.358-.349.527v.001l-.096.14c.74-.348 1.598-.636 2.57-.862l.142.53a12.7 12.7 0 0 0-2.26.734c.169.024.347.064.513.102.213.048.407.092.538.092.367 0-.696.454-1.233.454-.317 0-.599.074-.83.135a1.796 1.796 0 0 1-.407.079c-.085 0-.012.037.108.1.252.13.715.371.383.604-.193.135-.435.132-.694.128-.286-.004-.593-.008-.875.174-.19.258-.349.53-.476.818.128.16.63-.025.746-.195.17-.25 1.165-.004.406.715-.372.352-.85.602-1.215.791a6.907 6.907 0 0 0-.312.169 7.502 7.502 0 0 0-.033.293.666.666 0 0 0 .063-.078c.08-.108.175-.236.378-.131.12.06.176.056.197.046-.024.03-.078.153-.078.56 0 .32-.079.628-.175.878.21-.191.438-.256.438.111 0 .311-.065.512-.13.713a2.08 2.08 0 0 0-.133.718c0 .628.263 1.524.263 1.334 0-.19.32-1.412.5-.86.066.2.11.46.154.73.078.472.16.971.376 1.224.247.29 1.127.97 1.688 1.317a5.05 5.05 0 0 0 1.058.23Zm-3.95-6.964c-.001-.001-.005 0-.011.008.008-.003.011-.007.01-.008Zm9.83.008c-.005-.007-.01-.009-.01-.008 0 .001.003.005.01.008Zm.19 4.393a7.13 7.13 0 0 0 .07-.141c-.06.054-.103.112-.07.141ZM12.76 12.95a3.088 3.088 0 0 1-.096.45c.025-.166.057-.317.096-.45Z"/></g></g></g><defs><clipPath id="b"><rect width="36" height="24" x="3" y="2" fill="#fff" rx="2"/></clipPath><filter id="a" width="42" height="30" x="0" y="0" color-interpolation-filters="sRGB" filterUnits="userSpaceOnUse"><feFlood flood-opacity="0" result="BackgroundImageFix"/><feColorMatrix in="SourceAlpha" result="hardAlpha" values="0 0 0 0 0 0 0 0 0 0 0 0 0 0 0 0 0 0 127 0"/><feOffset dy="1"/><feGaussianBlur stdDeviation="1"/><feColorMatrix values="0 0 0 0 0.0627451 0 0 0 0 0.0941176 0 0 0 0 0.156863 0 0 0 0.06 0"/><feBlend in2="BackgroundImageFix" result="effect1_dropShadow_91_28533"/><feColorMatrix in="SourceAlpha" result="hardAlpha" values="0 0 0 0 0 0 0 0 0 0 0 0 0 0 0 0 0 0 127 0"/><feOffset dy="1"/><feGaussianBlur stdDeviation="1.5"/><feColorMatrix values="0 0 0 0 0.0627451 0 0 0 0 0.0941176 0 0 0 0 0.156863 0 0 0 0.1 0"/><feBlend in2="effect1_dropShadow_91_28533" result="effect2_dropShadow_91_28533"/><feBlend in="SourceGraphic" in2="effect2_dropShadow_91_28533" result="shape"/></filter></defs></svg>
